X:7885
T:Walter Bulwer's No 1
O:england
M:4/4
L:1/8
K:G
|:Bc|dcBd g3f|e2A2A3B|cBAc f2e2|
d2B2B3c|dcBd g3f|e2A2A2G2|FGAB cdef|
g2g2g2:|
|:fg|a2fg a2fg|agfg e4|e2a2gf e2|
d^cde fefg|a2fg a2fg|agfg e4|e2a2gf e2|
d6:|


